Flat-Remix-Dark/apps/scalable/arduino.svg

<svg xmlns="http://www.w3.org/2000/svg" xmlns:xlink="http://www.w3.org/1999/xlink" width="384pt" height="384pt" version="1.1" viewBox="0 0 384 384">
 <defs>
  <filter id="alpha" width="100%" height="100%" x="0%" y="0%" filterUnits="objectBoundingBox">
   <feColorMatrix in="SourceGraphic" type="matrix" values="0 0 0 0 1 0 0 0 0 1 0 0 0 0 1 0 0 0 1 0"/>
  </filter>
  <mask id="mask0">
   <g filter="url(#alpha)">
    <rect width="384" height="384" x="0" y="0" style="fill:rgb(0%,0%,0%);fill-opacity:0.2"/>
   </g>
  </mask>
  <clipPath id="clip1">
   <rect width="384" height="384" x="0" y="0"/>
  </clipPath>
  <g id="surface5" clip-path="url(#clip1)">
   <path style="fill:rgb(0%,0%,0%)" d="M 132 90 C 72.351562 90 24 138.351562 24 198 C 24 257.648438 72.351562 306 132 306 C 153.359375 305.972656 174.230469 299.609375 191.976562 287.71875 C 209.734375 299.617188 230.625 305.976562 252 305.996094 C 311.648438 305.996094 360 257.640625 360 197.996094 C 360 138.347656 311.648438 89.996094 252 89.996094 C 230.640625 90.023438 209.769531 96.386719 192.023438 108.277344 C 174.265625 96.375 153.375 90.015625 132 89.996094 Z M 132 90"/>
  </g>
  <mask id="mask1">
   <g filter="url(#alpha)">
    <rect width="384" height="384" x="0" y="0" style="fill:rgb(0%,0%,0%);fill-opacity:0.2"/>
   </g>
  </mask>
  <clipPath id="clip2">
   <rect width="384" height="384" x="0" y="0"/>
  </clipPath>
  <g id="surface8" clip-path="url(#clip2)">
   <path style="fill:rgb(0%,0%,0%)" d="M 130.429688 138 C 122.820312 138 115.242188 139.523438 108.1875 142.5 C 101.132812 145.476562 94.6875 149.867188 89.25 155.410156 C 83.8125 160.957031 79.441406 167.59375 76.476562 174.886719 C 73.511719 182.183594 72 190.054688 72 197.976562 C 72 205.898438 73.511719 213.765625 76.476562 221.0625 C 79.441406 228.359375 83.8125 234.972656 89.25 240.515625 C 94.6875 246.058594 101.132812 250.449219 108.1875 253.429688 C 115.082031 256.339844 122.476562 257.835938 129.914062 257.90625 C 130.089844 257.914062 130.253906 257.921875 130.429688 257.929688 C 148.515625 258.785156 163.074219 251.617188 173.742188 241.195312 C 181.035156 234.074219 186.773438 225.652344 192 217.078125 C 197.226562 225.652344 202.964844 234.074219 210.257812 241.195312 C 220.925781 251.617188 235.484375 258.785156 253.570312 257.929688 C 253.746094 257.921875 253.910156 257.914062 254.085938 257.90625 C 261.523438 257.84375 268.917969 256.339844 275.8125 253.429688 C 282.867188 250.449219 289.3125 246.058594 294.75 240.515625 L 294.796875 240.445312 C 300.21875 234.910156 304.578125 228.335938 307.527344 221.0625 C 310.492188 213.769531 312.003906 205.894531 312.003906 197.976562 C 312.003906 190.054688 310.492188 182.183594 307.527344 174.886719 L 307.457031 174.769531 C 304.492188 167.523438 300.160156 160.933594 294.75 155.414062 C 289.3125 149.871094 282.871094 145.476562 275.8125 142.503906 C 268.769531 139.527344 261.1875 138.003906 253.578125 138.003906 C 234.523438 138.003906 219.472656 145.828125 208.363281 156.734375 C 201.941406 163.023438 196.734375 170.222656 192.007812 177.589844 C 187.277344 170.222656 182.070312 163.023438 175.648438 156.734375 C 164.539062 145.828125 149.488281 138.003906 130.433594 138.003906 Z M 132.609375 162 C 146.152344 162 154.789062 166.566406 162.726562 174.140625 C 169.015625 180.144531 174.53125 188.320312 180 197.226562 C 173.761719 207.632812 167.722656 217.148438 160.945312 223.59375 C 153.472656 230.699219 145.75 234.617188 133.101562 233.929688 L 132.609375 233.929688 C 127.785156 233.929688 122.914062 232.964844 118.476562 231.140625 C 114.097656 229.339844 110.070312 226.65625 106.734375 223.382812 L 106.59375 223.265625 C 103.230469 219.929688 100.511719 215.910156 98.714844 211.601562 C 96.917969 207.292969 95.996094 202.601562 95.996094 197.957031 C 95.996094 193.316406 96.917969 188.625 98.714844 184.316406 C 100.511719 180.007812 103.230469 176.003906 106.589844 172.667969 L 106.730469 172.527344 C 110.066406 169.25 114.09375 166.585938 118.472656 164.789062 C 122.914062 162.964844 127.785156 162.003906 132.609375 162.003906 Z M 251.386719 162 C 256.210938 162 261.082031 162.964844 265.519531 164.789062 C 269.898438 166.589844 273.929688 169.25 277.261719 172.523438 L 277.402344 172.664062 C 280.765625 176 283.480469 180.003906 285.277344 184.3125 C 287.078125 188.609375 288.003906 193.300781 288.003906 197.945312 C 288.003906 202.582031 287.082031 207.277344 285.285156 211.585938 C 283.484375 215.894531 280.769531 219.921875 277.410156 223.257812 L 277.269531 223.375 C 273.933594 226.648438 269.90625 229.332031 265.527344 231.132812 C 261.089844 232.957031 256.21875 233.921875 251.394531 233.921875 L 250.902344 233.921875 C 238.253906 234.609375 230.527344 230.691406 223.058594 223.585938 C 216.277344 217.140625 210.242188 207.625 204.003906 197.222656 C 209.472656 188.304688 214.980469 180.132812 221.269531 174.132812 C 229.214844 166.550781 237.855469 161.988281 251.390625 161.988281 Z M 240 174 L 240 186 L 228 186 L 228 210 L 240 210 L 240 222 L 264 222 L 264 210 L 276 210 L 276 186 L 264 186 L 264 174 Z M 108 186 L 108 210 L 156 210 L 156 186 Z M 108 186"/>
  </g>
  <mask id="mask2">
   <g filter="url(#alpha)">
    <rect width="384" height="384" x="0" y="0" style="fill:rgb(0%,0%,0%);fill-opacity:0.2"/>
   </g>
  </mask>
  <clipPath id="clip3">
   <rect width="384" height="384" x="0" y="0"/>
  </clipPath>
  <g id="surface11" clip-path="url(#clip3)">
   <path style="fill:rgb(100%,100%,100%)" d="M 132 84 C 72.351562 84 24 132.351562 24 192 C 24.035156 192.820312 24.078125 193.640625 24.128906 194.460938 C 26.039062 136.25 73.757812 90.039062 132 90 C 153.375 90.019531 174.265625 96.382812 192.023438 108.28125 C 209.769531 96.390625 230.640625 90.027344 252 90 C 310.609375 90.054688 358.476562 136.839844 359.871094 195.433594 C 359.933594 194.289062 359.976562 193.144531 360 192 C 360 132.351562 311.648438 84 252 84 C 230.640625 84.027344 209.769531 90.390625 192.023438 102.28125 C 174.265625 90.382812 153.375 84.019531 132 84 Z M 132 84"/>
  </g>
 </defs>
 <g>
  <use mask="url(#mask0)" xlink:href="#surface5"/>
  <path style="fill:rgb(9.803922%,59.215686%,61.568627%)" d="M 132 84 C 72.351562 84 24 132.351562 24 192 C 24 251.648438 72.351562 300 132 300 C 153.359375 299.972656 174.230469 293.613281 191.976562 281.722656 C 209.734375 293.621094 230.625 299.980469 252 300 C 311.648438 300 360 251.648438 360 192 C 360 132.351562 311.648438 84 252 84 C 230.640625 84.027344 209.769531 90.390625 192.023438 102.28125 C 174.265625 90.382812 153.375 84.019531 132 84 Z M 132 84"/>
  <use mask="url(#mask1)" xlink:href="#surface8"/>
  <path style="fill:rgb(47.45098%,100%,53.333333%)" d="M 130.429688 132 C 122.820312 132 115.242188 133.523438 108.1875 136.5 C 101.132812 139.476562 94.6875 143.867188 89.25 149.410156 C 83.8125 154.957031 79.441406 161.59375 76.476562 168.886719 C 73.511719 176.183594 72 184.054688 72 191.976562 C 72 199.898438 73.511719 207.765625 76.476562 215.0625 C 79.441406 222.359375 83.8125 228.972656 89.25 234.515625 C 94.6875 240.058594 101.132812 244.449219 108.1875 247.429688 C 115.082031 250.339844 122.476562 251.835938 129.914062 251.90625 C 130.089844 251.914062 130.253906 251.921875 130.429688 251.929688 C 148.515625 252.785156 163.074219 245.617188 173.742188 235.195312 C 181.035156 228.074219 186.773438 219.652344 192 211.078125 C 197.226562 219.652344 202.964844 228.074219 210.257812 235.195312 C 220.925781 245.617188 235.484375 252.785156 253.570312 251.929688 C 253.746094 251.921875 253.910156 251.914062 254.085938 251.90625 C 261.523438 251.84375 268.917969 250.339844 275.8125 247.429688 C 282.867188 244.449219 289.3125 240.058594 294.75 234.515625 L 294.796875 234.445312 C 300.21875 228.910156 304.578125 222.335938 307.527344 215.0625 C 310.492188 207.769531 312.003906 199.894531 312.003906 191.976562 C 312.003906 184.054688 310.492188 176.183594 307.527344 168.886719 L 307.457031 168.769531 C 304.492188 161.523438 300.160156 154.933594 294.75 149.414062 C 289.3125 143.871094 282.871094 139.476562 275.8125 136.503906 C 268.769531 133.527344 261.1875 132.003906 253.578125 132.003906 C 234.523438 132.003906 219.472656 139.828125 208.363281 150.734375 C 201.941406 157.023438 196.734375 164.222656 192.007812 171.589844 C 187.277344 164.222656 182.070312 157.023438 175.648438 150.734375 C 164.539062 139.828125 149.488281 132.003906 130.433594 132.003906 Z M 132.609375 156 C 146.152344 156 154.789062 160.566406 162.726562 168.140625 C 169.015625 174.144531 174.53125 182.320312 180 191.226562 C 173.761719 201.632812 167.722656 211.148438 160.945312 217.59375 C 153.472656 224.699219 145.75 228.617188 133.101562 227.929688 L 132.609375 227.929688 C 127.785156 227.929688 122.914062 226.964844 118.476562 225.140625 C 114.097656 223.339844 110.070312 220.65625 106.734375 217.382812 L 106.59375 217.265625 C 103.230469 213.929688 100.511719 209.910156 98.714844 205.601562 C 96.917969 201.292969 95.996094 196.601562 95.996094 191.957031 C 95.996094 187.316406 96.917969 182.625 98.714844 178.316406 C 100.511719 174.007812 103.230469 170.003906 106.589844 166.667969 L 106.730469 166.527344 C 110.066406 163.25 114.09375 160.585938 118.472656 158.789062 C 122.914062 156.964844 127.785156 156.003906 132.609375 156.003906 Z M 251.386719 156 C 256.210938 156 261.082031 156.964844 265.519531 158.789062 C 269.898438 160.589844 273.929688 163.25 277.261719 166.523438 L 277.402344 166.664062 C 280.765625 170 283.480469 174.003906 285.277344 178.3125 C 287.078125 182.609375 288.003906 187.300781 288.003906 191.945312 C 288.003906 196.582031 287.082031 201.277344 285.285156 205.585938 C 283.484375 209.894531 280.769531 213.921875 277.410156 217.257812 L 277.269531 217.375 C 273.933594 220.648438 269.90625 223.332031 265.527344 225.132812 C 261.089844 226.957031 256.21875 227.921875 251.394531 227.921875 L 250.902344 227.921875 C 238.253906 228.609375 230.527344 224.691406 223.058594 217.585938 C 216.277344 211.140625 210.242188 201.625 204.003906 191.222656 C 209.472656 182.304688 214.980469 174.132812 221.269531 168.132812 C 229.214844 160.550781 237.855469 155.988281 251.390625 155.988281 Z M 240 168 L 240 180 L 228 180 L 228 204 L 240 204 L 240 216 L 264 216 L 264 204 L 276 204 L 276 180 L 264 180 L 264 168 Z M 108 180 L 108 204 L 156 204 L 156 180 Z M 108 180"/>
  <use mask="url(#mask2)" xlink:href="#surface11"/>
 </g>
</svg>

<svg xmlns="http://www.w3.org/2000/svg" xmlns:xlink="http://www.w3.org/1999/xlink" width="384pt" height="384pt" version="1.1" viewBox="0 0 384 384">
 <defs>
  <filter id="alpha" width="100%" height="100%" x="0%" y="0%" filterUnits="objectBoundingBox">
   <feColorMatrix in="SourceGraphic" type="matrix" values="0 0 0 0 1 0 0 0 0 1 0 0 0 0 1 0 0 0 1 0"/>
  </filter>
  <mask id="mask1">
   <g filter="url(#alpha)">
    <rect style="fill:rgb(0%,0%,0%);fill-opacity:0.2" width="384" height="384" x="0" y="0"/>
   </g>
  </mask>
  <clipPath id="clip2">
   <rect width="384" height="384" x="0" y="0"/>
  </clipPath>
  <g id="surface8" clip-path="url(#clip2)">
   <path d="M 130.429688 138 C 122.820312 138 115.242188 139.523438 108.1875 142.5 C 101.132812 145.476562 94.6875 149.867188 89.25 155.410156 C 83.8125 160.957031 79.441406 167.59375 76.476562 174.886719 C 73.511719 182.183594 72 190.054688 72 197.976562 C 72 205.898438 73.511719 213.765625 76.476562 221.0625 C 79.441406 228.359375 83.8125 234.972656 89.25 240.515625 C 94.6875 246.058594 101.132812 250.449219 108.1875 253.429688 C 115.082031 256.339844 122.476562 257.835938 129.914062 257.90625 C 130.089844 257.914062 130.253906 257.921875 130.429688 257.929688 C 148.515625 258.785156 163.074219 251.617188 173.742188 241.195312 C 181.035156 234.074219 186.773438 225.652344 192 217.078125 C 197.226562 225.652344 202.964844 234.074219 210.257812 241.195312 C 220.925781 251.617188 235.484375 258.785156 253.570312 257.929688 C 253.746094 257.921875 253.910156 257.914062 254.085938 257.90625 C 261.523438 257.84375 268.917969 256.339844 275.8125 253.429688 C 282.867188 250.449219 289.3125 246.058594 294.75 240.515625 L 294.796875 240.445312 C 300.21875 234.910156 304.578125 228.335938 307.527344 221.0625 C 310.492188 213.769531 312.003906 205.894531 312.003906 197.976562 C 312.003906 190.054688 310.492188 182.183594 307.527344 174.886719 L 307.457031 174.769531 C 304.492188 167.523438 300.160156 160.933594 294.75 155.414062 C 289.3125 149.871094 282.871094 145.476562 275.8125 142.503906 C 268.769531 139.527344 261.1875 138.003906 253.578125 138.003906 C 234.523438 138.003906 219.472656 145.828125 208.363281 156.734375 C 201.941406 163.023438 196.734375 170.222656 192.007812 177.589844 C 187.277344 170.222656 182.070312 163.023438 175.648438 156.734375 C 164.539062 145.828125 149.488281 138.003906 130.433594 138.003906 Z M 132.609375 162 C 146.152344 162 154.789062 166.566406 162.726562 174.140625 C 169.015625 180.144531 174.53125 188.320312 180 197.226562 C 173.761719 207.632812 167.722656 217.148438 160.945312 223.59375 C 153.472656 230.699219 145.75 234.617188 133.101562 233.929688 L 132.609375 233.929688 C 127.785156 233.929688 122.914062 232.964844 118.476562 231.140625 C 114.097656 229.339844 110.070312 226.65625 106.734375 223.382812 L 106.59375 223.265625 C 103.230469 219.929688 100.511719 215.910156 98.714844 211.601562 C 96.917969 207.292969 95.996094 202.601562 95.996094 197.957031 C 95.996094 193.316406 96.917969 188.625 98.714844 184.316406 C 100.511719 180.007812 103.230469 176.003906 106.589844 172.667969 L 106.730469 172.527344 C 110.066406 169.25 114.09375 166.585938 118.472656 164.789062 C 122.914062 162.964844 127.785156 162.003906 132.609375 162.003906 Z M 251.386719 162 C 256.210938 162 261.082031 162.964844 265.519531 164.789062 C 269.898438 166.589844 273.929688 169.25 277.261719 172.523438 L 277.402344 172.664062 C 280.765625 176 283.480469 180.003906 285.277344 184.3125 C 287.078125 188.609375 288.003906 193.300781 288.003906 197.945312 C 288.003906 202.582031 287.082031 207.277344 285.285156 211.585938 C 283.484375 215.894531 280.769531 219.921875 277.410156 223.257812 L 277.269531 223.375 C 273.933594 226.648438 269.90625 229.332031 265.527344 231.132812 C 261.089844 232.957031 256.21875 233.921875 251.394531 233.921875 L 250.902344 233.921875 C 238.253906 234.609375 230.527344 230.691406 223.058594 223.585938 C 216.277344 217.140625 210.242188 207.625 204.003906 197.222656 C 209.472656 188.304688 214.980469 180.132812 221.269531 174.132812 C 229.214844 166.550781 237.855469 161.988281 251.390625 161.988281 Z M 240 174 L 240 186 L 228 186 L 228 210 L 240 210 L 240 222 L 264 222 L 264 210 L 276 210 L 276 186 L 264 186 L 264 174 Z M 108 186 L 108 210 L 156 210 L 156 186 Z M 108 186" style="fill:rgb(0%,0%,0%)"/>
  </g>
  <mask id="mask2">
   <g filter="url(#alpha)">
    <rect style="fill:rgb(0%,0%,0%);fill-opacity:0.2" width="384" height="384" x="0" y="0"/>
   </g>
  </mask>
  <clipPath id="clip3">
   <rect width="384" height="384" x="0" y="0"/>
  </clipPath>
  <g id="surface11" clip-path="url(#clip3)">
   <path d="M 132 84 C 72.351562 84 24 132.351562 24 192 C 24.035156 192.820312 24.078125 193.640625 24.128906 194.460938 C 26.039062 136.25 73.757812 90.039062 132 90 C 153.375 90.019531 174.265625 96.382812 192.023438 108.28125 C 209.769531 96.390625 230.640625 90.027344 252 90 C 310.609375 90.054688 358.476562 136.839844 359.871094 195.433594 C 359.933594 194.289062 359.976562 193.144531 360 192 C 360 132.351562 311.648438 84 252 84 C 230.640625 84.027344 209.769531 90.390625 192.023438 102.28125 C 174.265625 90.382812 153.375 84.019531 132 84 Z M 132 84" style="fill:rgb(100%,100%,100%)"/>
  </g>
 </defs>
 <g transform="matrix(1.0491071,0,0,1.0491071,-9.4285632,-9.4285632)">
  <path d="M 132,84 C 72.351562,84 24,132.35156 24,192 c 0,59.64844 48.351562,108 108,108 21.35937,-0.0273 42.23047,-6.38672 59.97656,-18.27734 C 209.73437,293.62109 230.625,299.98047 252,300 311.64844,300 360,251.64844 360,192 360,132.35156 311.64844,84 252,84 230.64062,84.027344 209.76953,90.390625 192.02344,102.28125 174.26562,90.382812 153.375,84.019531 132,84 Z m 0,0" style="fill:#19a187"/>
  <use width="100%" height="100%" x="0" y="0" mask="url(#mask1)" xlink:href="#surface8"/>
  <path d="m 130.42969,132 c -7.60938,0 -15.1875,1.52344 -22.24219,4.5 -7.05469,2.97656 -13.5,7.36719 -18.9375,12.91016 -5.4375,5.54687 -9.808594,12.18359 -12.773438,19.47656 C 73.511719,176.18359 72,184.05469 72,191.97656 c 0,7.92188 1.511719,15.78906 4.476562,23.08594 2.964844,7.29687 7.335938,13.91016 12.773438,19.45312 5.4375,5.54297 11.88281,9.9336 18.9375,12.91407 6.89453,2.91015 14.28906,4.40625 21.72656,4.47656 0.17578,0.008 0.33985,0.0156 0.51563,0.0234 18.08593,0.85547 32.64453,-6.3125 43.3125,-16.73438 7.29297,-7.12109 13.03125,-15.54297 18.25781,-24.11719 5.22656,8.57422 10.96484,16.9961 18.25781,24.11719 10.66797,10.42188 25.22656,17.58985 43.3125,16.73438 0.17578,-0.008 0.33985,-0.0156 0.51563,-0.0234 7.4375,-0.0625 14.83203,-1.56641 21.72656,-4.47656 7.05469,-2.98047 13.5,-7.3711 18.9375,-12.91407 l 0.0469,-0.0703 c 5.42188,-5.53515 9.78125,-12.10937 12.73047,-19.38281 2.96485,-7.29297 4.47657,-15.16797 4.47657,-23.08594 0,-7.92187 -1.51172,-15.79297 -4.47657,-23.08984 l -0.0703,-0.11719 c -2.96484,-7.24609 -7.29687,-13.83594 -12.70703,-19.35547 -5.4375,-5.54297 -11.87891,-9.9375 -18.9375,-12.91015 -7.04297,-2.97657 -14.625,-4.5 -22.23438,-4.5 -19.05468,0 -34.10546,7.82421 -45.21484,18.73046 -6.42187,6.28907 -11.62891,13.48829 -16.35547,20.85547 -4.73047,-7.36718 -9.9375,-14.5664 -16.35937,-20.85547 -11.10938,-10.90625 -26.16016,-18.73046 -45.21485,-18.73046 z m 2.17968,24 c 13.54297,0 22.17969,4.56641 30.11719,12.14062 6.28906,6.00391 11.80469,14.17969 17.27344,23.08594 -6.23828,10.40625 -12.27734,19.92188 -19.05469,26.36719 -7.47265,7.10547 -15.19531,11.02344 -27.84375,10.33594 h -0.49219 c -4.82421,0 -9.69531,-0.96485 -14.13281,-2.78907 -4.3789,-1.80078 -8.40625,-4.48437 -11.74218,-7.75781 l -0.14063,-0.11719 c -3.36328,-3.33593 -6.08203,-7.35546 -7.878906,-11.66406 -1.796875,-4.30859 -2.71875,-9 -2.71875,-13.64453 0,-4.64062 0.921875,-9.33203 2.71875,-13.64062 1.796876,-4.3086 4.515626,-8.3125 7.874996,-11.64844 l 0.14063,-0.14063 c 3.33594,-3.27734 7.36328,-5.9414 11.74219,-7.73828 4.4414,-1.82422 9.3125,-2.78515 14.13671,-2.78515 z m 118.77735,0 c 4.82422,0 9.69531,0.96484 14.13281,2.78906 4.37891,1.80078 8.41016,4.46094 11.74219,7.73438 l 0.14062,0.14062 c 3.36328,3.33594 6.07813,7.33985 7.875,11.64844 1.80078,4.29687 2.72657,8.98828 2.72657,13.63281 0,4.63672 -0.92188,9.33203 -2.71875,13.64063 -1.80079,4.30859 -4.51563,8.33593 -7.875,11.67187 l -0.14063,0.11719 c -3.33594,3.27344 -7.36328,5.95703 -11.74219,7.75781 -4.4375,1.82422 -9.30859,2.78906 -14.13281,2.78906 h -0.49219 c -12.64843,0.6875 -20.375,-3.23046 -27.84375,-10.33593 -6.78125,-6.44532 -12.8164,-15.96094 -19.05468,-26.36328 5.46875,-8.91797 10.97656,-17.08985 17.26562,-23.08985 7.94531,-7.58203 16.58594,-12.14453 30.12109,-12.14453 z M 240,168 v 12 h -12 v 24 h 12 v 12 h 24 v -12 h 12 v -24 h -12 v -12 z m -132,12 v 24 h 48 v -24 z m 0,0" style="fill:#ffffff"/>
  <use width="100%" height="100%" x="0" y="0" mask="url(#mask2)" xlink:href="#surface11"/>
 </g>
 <path d="m 15.820313,188.54296 c -0.04054,1.24587 -0.06885,2.49575 -0.06885,3.75148 0,62.57759 50.726603,113.30273 113.304197,113.30273 22.40827,-0.0286 44.30481,-6.70027 62.92236,-19.17481 18.62985,12.48273 40.54604,19.15432 62.97071,19.17481 62.5776,0 113.30273,-50.72514 113.30273,-113.30273 0,-1.25573 -0.0268,-2.50561 -0.0674,-3.75148 -1.97886,60.84112 -51.91298,109.55421 -113.23535,109.55421 -22.42466,-0.0205 -44.34086,-6.69208 -62.97071,-19.17481 -18.61755,12.47454 -40.51409,19.14621 -62.92236,19.17481 -61.32237,0 -111.25649,-48.71309 -113.235349,-109.55421 z" style="opacity:0.3;fill:#262d2b"/>
</svg>
